img/descuento/descuento-form-icon2.svg

<svg width="20" height="20" viewBox="0 0 20 20" fill="none" xmlns="http://www.w3.org/2000/svg">
<g opacity="0.82">
<path d="M8.45563 11.4665C9.61535 12.643 11.0186 13.5513 12.5667 14.1276L14.6612 12.461C14.7233 12.4182 14.7969 12.3953 14.8723 12.3953C14.9477 12.3953 15.0213 12.4182 15.0834 12.461L18.9723 14.9665C19.1199 15.0553 19.2449 15.1772 19.3374 15.3225C19.4298 15.4679 19.4872 15.6327 19.505 15.8041C19.5227 15.9754 19.5004 16.1486 19.4398 16.3098C19.3792 16.4711 19.2819 16.616 19.1556 16.7332L17.3334 18.5332C17.0725 18.791 16.7517 18.9803 16.3998 19.084C16.0479 19.1877 15.6758 19.2027 15.3167 19.1276C11.7346 18.3878 8.43293 16.6551 5.78897 14.1276C3.20368 11.575 1.41467 8.32699 0.638967 4.77763C0.562337 4.4241 0.578331 4.05677 0.685398 3.71123C0.792466 3.36569 0.986976 3.05368 1.25008 2.80541L3.13897 0.983188C3.25586 0.86307 3.3984 0.770952 3.55594 0.713732C3.71347 0.656511 3.88191 0.635671 4.04864 0.652771C4.21537 0.669872 4.37607 0.72447 4.51871 0.812477C4.66135 0.900485 4.78223 1.01962 4.8723 1.16097L7.46119 4.99986C7.50584 5.06014 7.52995 5.13317 7.52995 5.20819C7.52995 5.28321 7.50584 5.35624 7.46119 5.41652L5.75563 7.46652C6.34762 8.98371 7.26993 10.3501 8.45563 11.4665Z" fill="white"/>
</g>
</svg>

<svg width="20" height="20" fill="none" xmlns="http://www.w3.org/2000/svg"><path d="M8.456 11.466a11.316 11.316 0 004.11 2.662l2.095-1.667a.372.372 0 01.422 0l3.89 2.505a1.113 1.113 0 01.183 1.767l-1.823 1.8a2.222 2.222 0 01-2.016.595 19.494 19.494 0 01-9.528-5 18.772 18.772 0 01-5.15-9.35 2.1 2.1 0 01.611-1.973L3.14.983a1.111 1.111 0 011.733.178L7.462 5a.35.35 0 010 .417l-1.706 2.05a10.972 10.972 0 002.7 4z" fill="#fff" opacity=".82"/></svg>
